!!!OTL: ES RITTEN DREI REITER WOL UEBER DEN RHEIN
!!!ARE: Europa, Mitteleuropa, Deutschland, Hessen, Darmstadt, Alsfeld
!!!SCT: E0042F
!!!YEM: Copyright 1995, estate of Helmut Schaffrath.
**kern
*ICvox
*Ivox
*M6/8
*k[f#]
*G:
{8d
=1
8.d
16e
8f#
8.g
16a
8b
=2
8a
8a
8f#
4d}
{8d
=3
8a
8a
8a
8dd
8dd
8dd
=4
4b
8a
4g}
{16g
16b
=5
8dd
8dd
8dd
8.ee
16ee
8ee
=6
4dd
8cc
4b}
{8dd
=7
4ee
8ee
8dd
8cc
8b
=8
4.a
4g}
==
!!!AGN: erzaehlendes Volks - Lied, Ritter -, Raeuber - Sage, Ballade ?
!!!ONB: ESAC (Essen Associative Code) Database: ERK1
!!!AMT: compound duple
!!!AIN: vox
!!!EED: Helmut Schaffrath
!!!EEV: 1.0
*-
